svgs/1F937-1F3FF-200D-2642-FE0F.svg

<svg xmlns="http://www.w3.org/2000/svg" xmlns:xlink="http://www.w3.org/1999/xlink" preserveAspectRatio="none" viewBox="0 0 72 72"><defs><path id="a" fill="#00ACC1" d="M58.35 72v-6.25q0-7.15-4.2-12.15-4.2-5.1-10.4-5.1-4.55-.1-7.8-.15V72h14.1v-4.25Q53.3 72 56.7 72h1.65z"/><path id="b" fill="#8E726A" d="M102.5 73.1q1.75 3.1 5.15 2.6 2.65-.5 4.65-1.5 2-1.05 4.95-3.35 6.95-5.95 9.9-11.35.75-1.4.05-2.45-.75-1-1.65 0-2 2.7-5.55 5.85-3.25 2.8-3.4 2.5-.45-1.6-2.3-1.35-1.3.15-2.9 1.2-3.6 2.3-7.35 3.7-3.25 1.1-1.55 4.15z"/><path id="c" fill="#8E726A" d="M109.65 71.6l-5.55-2.65q-.5.1-1.05.5-1.15.85-1.55 2.4-.25.8-.15 3.55v1.75l5.55 1.95 4.75-1.15q.25-.9.7-2 .95-2.2 2.15-3.1l-4.85-1.25z"/><path id="d" fill="#00ACC1" d="M100.05 75q-.45.35-.55.9L94.1 118q-.6 3.95 2 7 2.65 3 6.65 3 4.9 0 8.3-3.45 3.4-3.5 3.3-8.4l-.25-39.45q0-.55-.4-.95-.35-.4-.9-.45l-11.75-.65q-.55-.05-1 .35z"/><path id="e" fill="#020202" fill-opacity=".537" d="M53.2 52.5l-1.05 7.6 1.35 1.6 1.05-7.65-1.35-1.55z"/><path id="f" fill="#00ACC1" d="M36 48.35q-6.4.15-7.75.15-6.2 0-10.4 5.1-4.2 5-4.2 12.15V72h1.65q3.35 0 6.65-4.25V72H36V48.35z"/><path id="g" fill="#563E37" d="M36.25 57.45q2 0 3.45-1.45 1.4-1.45 1.4-3.5v-4.2h-9.75v4.2q0 2.05 1.4 3.5 1.45 1.45 3.5 1.45z"/><path id="h" fill="#8E726A" d="M25.45 73.1q1.7-3.05-1.55-4.15-3.75-1.4-7.35-3.7-1.6-1.05-2.9-1.2-1.85-.25-2.3 1.35-.15.3-3.4-2.5-3.55-3.15-5.55-5.85-.9-1-1.6 0-.75 1 0 2.45 2.95 5.4 9.95 11.35 2.85 2.3 4.9 3.35 1.95.95 4.65 1.5 3.45.5 5.15-2.6z"/><path id="i" fill="#8E726A" d="M24.9 69.45l-1.05-.5-5.5 2.65-4.9 1.25q1.95 1.45 2.85 5.1l4.8 1.15 5.5-1.95V75.4q.1-2.75-.15-3.55-.4-1.55-1.55-2.4z"/><path id="j" fill="#00ACC1" d="M16 42.7q0-.3-.3-.5-.25-.25-.55-.2l-6.65.35q-.3.05-.5.25-.2.25-.2.55l-.2 22.2q0 2.75 1.9 4.7Q11.4 72 14.2 72q2.25 0 3.7-1.7 1.5-1.7 1.15-3.9L16 42.7z"/><path id="k" fill="#020202" fill-opacity=".537" d="M19.75 60.1l-1.05-7.6-1.35 1.55 1.05 7.65 1.35-1.6z"/><path id="l" fill="#563E37" d="M106.9 66.05h-3.6v20.3q4.75 0 7.85-2.4 3.6-2.8 3.6-8.05 0-5.3-3.9-8.1l-3.95-1.75z"/><path id="m" fill="#563E37" d="M24.7 66.05h-3.65l-3.9 1.75q-3.95 2.8-3.95 8.1 0 5.25 3.6 8.05 3.1 2.4 7.9 2.4v-20.3z"/><path id="n" fill="#8E726A" d="M106.75 73.8q0-30.45-8.65-45.45Q87.85 10.6 64 10.6q-23.9 0-34.15 17.75-8.65 15-8.65 45.45 0 25.9 14.6 38.45Q47.05 122 64 122q16.8 0 28.1-9.65 14.65-12.55 14.65-38.55z"/><path id="o" fill="#232020" d="M63.35 24.5v-.8q-.4-6.25-5.65-10.85-7.2-6.3-21.15-6.5H35.5q-13.95.2-21.1 6.5-5.3 4.6-5.65 10.85-.05.4-.05.8v14.55q.35-.3.95-.75.4-.35.95-.6l.4-.2 1.05 6.95Q17.8 35.5 19.4 25.7q4.55 3 8.3 4.25 3.75 1.25 7.8 1.2h1.05q6.7-.05 12.3-.7l4.1-.45q.1 0 .2.1L60 44.45l1.05-6.95.45.2q.5.25.9.55.65.5.95.8V24.5z"/><path id="p" fill="#563E37" d="M34.95 44.3q-.1.2.05.35.25.3.9.55.8.3 1.55.15t1.4-.75q.5-.45.65-.85.05-.2-.05-.3-.15-.15-.35-.05-1 .55-1.9.7-.8.15-2 .1-.2-.05-.25.1z"/><path id="q" fill="#513F35" d="M71 87.6q-.2-1.1-1.2-1.55-.9-.5-2.15-.25t-1.9 1.05q-.7.8-.5 1.9.3 1.8 3.2 1.15 2.85-.55 2.55-2.3z"/><path id="r" fill="#444" d="M56.55 72.1q-.3-1.7-1.55-2.7-1.2-1-2.65-.75-1.4.3-2.15 1.7t-.4 3.1q.35 1.7 1.55 2.7 1.25 1 2.65.7 1.4-.25 2.15-1.65t.4-3.1z"/><path id="s" fill="#444" d="M73.7 65.7q-.75 1.4-.4 3.1.35 1.7 1.55 2.7 1.25 1 2.65.7 1.4-.25 2.15-1.65t.45-3.1q-.35-1.7-1.55-2.7-1.25-1-2.65-.75-1.4.3-2.2 1.7z"/></defs><use xlink:href="#a"/><use transform="matrix(.56247 0 0 .56247 -.05 0)" xlink:href="#b"/><use transform="matrix(.56247 0 0 .56247 -.05 0)" xlink:href="#c"/><use transform="translate(-.05) scale(.5625)" xlink:href="#d"/><use xlink:href="#e"/><use xlink:href="#f"/><use xlink:href="#g"/><use transform="rotate(.078) scale(.56247)" xlink:href="#h"/><use transform="rotate(.078) scale(.56247)" xlink:href="#i"/><use xlink:href="#j"/><use xlink:href="#k"/><use transform="matrix(.34651 -.06108 .06108 .34651 9.3 15.8)" xlink:href="#l"/><use transform="matrix(.34651 -.06108 .06108 .34651 9.3 15.8)" xlink:href="#m"/><use transform="rotate(-9.996 96.735 -45.689) scale(.35193)" xlink:href="#n"/><use transform="rotate(-9.995 95.55 -45.22) scale(.62577)" xlink:href="#o"/><use xlink:href="#p"/><use transform="rotate(.078) scale(.56247)" xlink:href="#q"/><use transform="rotate(.078) scale(.56247)" xlink:href="#r"/><use transform="rotate(.078) scale(.56247)" xlink:href="#s"/></svg>

<svg xmlns="http://www.w3.org/2000/svg" version="1.1" xmlns:xlink="http://www.w3.org/1999/xlink" preserveAspectRatio="none" x="0px" y="0px" width="72px" height="72px" viewBox="0 0 72 72">
<defs>
<g id="Layer0_0_MEMBER_0_FILL">
<path fill="#00ACC1" stroke="none" d="
M 58.35 72
L 58.35 65.75
Q 58.35 58.6 54.15 53.6 49.95 48.5 43.75 48.5 39.2 48.4 35.95 48.35
L 35.95 72 50.05 72 50.05 67.75
Q 53.3 72 56.7 72
L 58.35 72 Z"/>
</g>

<g id="Layer0_0_MEMBER_1_MEMBER_0_MEMBER_0_FILL">
<path fill="#8E726A" stroke="none" d="
M 102.5 73.1
Q 104.25 76.2 107.65 75.7 110.3 75.2 112.3 74.2 114.3 73.15 117.25 70.85 124.2 64.9 127.15 59.5 127.9 58.1 127.2 57.05 126.45 56.05 125.55 57.05 123.55 59.75 120 62.9 116.75 65.7 116.6 65.4 116.15 63.8 114.3 64.05 113 64.2 111.4 65.25 107.8 67.55 104.05 68.95 100.8 70.05 102.5 73.1 Z"/>
</g>

<g id="Layer0_0_MEMBER_1_MEMBER_0_MEMBER_1_FILL">
<path fill="#8E726A" stroke="none" d="
M 109.65 71.6
L 104.1 68.95
Q 103.6 69.05 103.05 69.45 101.9 70.3 101.5 71.85 101.25 72.65 101.35 75.4
L 101.35 77.15 106.9 79.1 111.65 77.95
Q 111.9 77.05 112.35 75.95 113.3 73.75 114.5 72.85
L 109.65 71.6 Z"/>
</g>

<g id="Layer0_0_MEMBER_1_MEMBER_1_MEMBER_0_MEMBER_0_FILL">
<path fill="#00ACC1" stroke="none" d="
M 100.05 75
Q 99.6 75.35 99.5 75.9
L 94.1 118
Q 93.5 121.95 96.1 125 98.75 128 102.75 128 107.65 128 111.05 124.55 114.45 121.05 114.35 116.15
L 114.1 76.7
Q 114.1 76.15 113.7 75.75 113.35 75.35 112.8 75.3
L 101.05 74.65
Q 100.5 74.6 100.05 75 Z"/>
</g>

<g id="Layer0_0_MEMBER_2_FILL">
<path fill="#020202" fill-opacity="0.5372549019607843" stroke="none" d="
M 53.2 52.5
L 52.15 60.1 53.5 61.7 54.55 54.05 53.2 52.5 Z"/>
</g>

<g id="Layer0_1_FILL">
<path fill="#00ACC1" stroke="none" d="
M 36 48.35
Q 29.6 48.5 28.25 48.5 22.05 48.5 17.85 53.6 13.65 58.6 13.65 65.75
L 13.65 72 15.3 72
Q 18.65 72 21.95 67.75
L 21.95 72 36 72 36 48.35 Z"/>
</g>

<g id="Layer0_2_FILL">
<path fill="#563E37" stroke="none" d="
M 36.25 57.45
Q 38.25 57.45 39.7 56 41.1 54.55 41.1 52.5
L 41.1 48.3 31.35 48.3 31.35 52.5
Q 31.35 54.55 32.75 56 34.2 57.45 36.25 57.45 Z"/>
</g>

<g id="Layer0_3_MEMBER_0_MEMBER_0_FILL">
<path fill="#8E726A" stroke="none" d="
M 25.45 73.1
Q 27.15 70.05 23.9 68.95 20.15 67.55 16.55 65.25 14.95 64.2 13.65 64.05 11.8 63.8 11.35 65.4 11.2 65.7 7.95 62.9 4.4 59.75 2.4 57.05 1.5 56.05 0.8 57.05 0.05 58.05 0.8 59.5 3.75 64.9 10.75 70.85 13.6 73.15 15.65 74.2 17.6 75.15 20.3 75.7 23.75 76.2 25.45 73.1 Z"/>
</g>

<g id="Layer0_3_MEMBER_0_MEMBER_1_FILL">
<path fill="#8E726A" stroke="none" d="
M 24.9 69.45
L 23.85 68.95 18.35 71.6 13.45 72.85
Q 15.4 74.3 16.3 77.95
L 21.1 79.1 26.6 77.15 26.6 75.4
Q 26.7 72.65 26.45 71.85 26.05 70.3 24.9 69.45 Z"/>
</g>

<g id="Layer0_3_MEMBER_1_MEMBER_0_MEMBER_0_FILL">
<path fill="#00ACC1" stroke="none" d="
M 16 42.7
Q 16 42.4 15.7 42.2 15.45 41.95 15.15 42
L 8.5 42.35
Q 8.2 42.4 8 42.6 7.8 42.85 7.8 43.15
L 7.6 65.35
Q 7.6 68.1 9.5 70.05 11.4 72 14.2 72 16.45 72 17.9 70.3 19.4 68.6 19.05 66.4
L 16 42.7 Z"/>
</g>

<g id="Layer0_4_FILL">
<path fill="#020202" fill-opacity="0.5372549019607843" stroke="none" d="
M 19.75 60.1
L 18.7 52.5 17.35 54.05 18.4 61.7 19.75 60.1 Z"/>
</g>

<g id="Layer0_5_MEMBER_0_MEMBER_0_MEMBER_0_FILL">
<path fill="#563E37" stroke="none" d="
M 106.9 66.05
L 103.3 66.05 103.3 86.35
Q 108.05 86.35 111.15 83.95 114.75 81.15 114.75 75.9 114.75 70.6 110.85 67.8
L 106.9 66.05 Z"/>
</g>

<g id="Layer0_5_MEMBER_0_MEMBER_0_MEMBER_1_FILL">
<path fill="#563E37" stroke="none" d="
M 24.7 66.05
L 21.05 66.05 17.15 67.8
Q 13.2 70.6 13.2 75.9 13.2 81.15 16.8 83.95 19.9 86.35 24.7 86.35
L 24.7 66.05 Z"/>
</g>

<g id="Layer0_5_MEMBER_0_MEMBER_1_FILL">
<path fill="#8E726A" stroke="none" d="
M 106.75 73.8
Q 106.75 43.35 98.1 28.35 87.85 10.6 64 10.6 40.1 10.6 29.85 28.35 21.2 43.35 21.2 73.8 21.2 99.7 35.8 112.25 47.05 122 64 122 80.8 122 92.1 112.35 106.75 99.8 106.75 73.8 Z"/>
</g>

<g id="Layer0_5_MEMBER_0_MEMBER_2_FILL">
<path fill="#232020" stroke="none" d="
M 63.35 24.5
Q 63.35 24.1 63.35 23.7 62.95 17.45 57.7 12.85 50.5 6.55 36.55 6.35
L 35.5 6.35
Q 21.55 6.55 14.4 12.85 9.1 17.45 8.75 23.7 8.7 24.1 8.7 24.5
L 8.7 39.05
Q 9.05 38.75 9.65 38.3 10.05 37.95 10.6 37.7
L 11 37.5 12.05 44.45
Q 17.8 35.5 19.4 25.7 23.95 28.7 27.7 29.95 31.45 31.2 35.5 31.15
L 36.55 31.15
Q 43.25 31.1 48.85 30.45
L 52.95 30
Q 53.05 30 53.15 30.1
L 60 44.45 61.05 37.5 61.5 37.7
Q 62 37.95 62.4 38.25 63.05 38.75 63.35 39.05
L 63.35 24.5 Z"/>
</g>

<g id="Layer0_6_MEMBER_0_FILL">
<path fill="#563E37" stroke="none" d="
M 34.95 44.3
Q 34.85 44.5 35 44.65 35.25 44.95 35.9 45.2 36.7 45.5 37.45 45.35 38.2 45.2 38.85 44.6 39.35 44.15 39.5 43.75 39.55 43.55 39.45 43.45 39.3 43.3 39.1 43.4 38.1 43.95 37.2 44.1 36.4 44.25 35.2 44.2 35 44.15 34.95 44.3 Z"/>
</g>

<g id="Layer0_6_MEMBER_1_FILL">
<path fill="#513F35" stroke="none" d="
M 71 87.6
Q 70.8 86.5 69.8 86.05 68.9 85.55 67.65 85.8 66.4 86.05 65.75 86.85 65.05 87.65 65.25 88.75 65.55 90.55 68.45 89.9 71.3 89.35 71 87.6 Z"/>
</g>

<g id="Layer0_6_MEMBER_2_FILL">
<path fill="#444444" stroke="none" d="
M 56.55 72.1
Q 56.25 70.4 55 69.4 53.8 68.4 52.35 68.65 50.95 68.95 50.2 70.35 49.45 71.75 49.8 73.45 50.15 75.15 51.35 76.15 52.6 77.15 54 76.85 55.4 76.6 56.15 75.2 56.9 73.8 56.55 72.1 Z"/>
</g>

<g id="Layer0_6_MEMBER_3_FILL">
<path fill="#444444" stroke="none" d="
M 73.7 65.7
Q 72.95 67.1 73.3 68.8 73.65 70.5 74.85 71.5 76.1 72.5 77.5 72.2 78.9 71.95 79.65 70.55 80.4 69.15 80.1 67.45 79.75 65.75 78.55 64.75 77.3 63.75 75.9 64 74.5 64.3 73.7 65.7 Z"/>
</g>
</defs>

<g id="Layer_1">
<g transform="matrix( 1, 0, 0, 1, 0,0) ">
<use xlink:href="#Layer0_0_MEMBER_0_FILL"/>
</g>

<g transform="matrix( 0.562469482421875, 0, 0, 0.562469482421875, -0.05,0) ">
<use xlink:href="#Layer0_0_MEMBER_1_MEMBER_0_MEMBER_0_FILL"/>
</g>

<g transform="matrix( 0.562469482421875, 0, 0, 0.562469482421875, -0.05,0) ">
<use xlink:href="#Layer0_0_MEMBER_1_MEMBER_0_MEMBER_1_FILL"/>
</g>

<g transform="matrix( 0.5625, 0, 0, 0.5625, -0.05,0) ">
<use xlink:href="#Layer0_0_MEMBER_1_MEMBER_1_MEMBER_0_MEMBER_0_FILL"/>
</g>

<g transform="matrix( 1, 0, 0, 1, 0,0) ">
<use xlink:href="#Layer0_0_MEMBER_2_FILL"/>
</g>

<g transform="matrix( 1, 0, 0, 1, 0,0) ">
<use xlink:href="#Layer0_1_FILL"/>
</g>

<g transform="matrix( 1, 0, 0, 1, 0,0) ">
<use xlink:href="#Layer0_2_FILL"/>
</g>

<g transform="matrix( 0.562469482421875, 0, 0, 0.562469482421875, 0,0) ">
<use xlink:href="#Layer0_3_MEMBER_0_MEMBER_0_FILL"/>
</g>

<g transform="matrix( 0.562469482421875, 0, 0, 0.562469482421875, 0,0) ">
<use xlink:href="#Layer0_3_MEMBER_0_MEMBER_1_FILL"/>
</g>

<g transform="matrix( 1, 0, 0, 1, 0,0) ">
<use xlink:href="#Layer0_3_MEMBER_1_MEMBER_0_MEMBER_0_FILL"/>
</g>

<g transform="matrix( 1, 0, 0, 1, 0,0) ">
<use xlink:href="#Layer0_4_FILL"/>
</g>

<g transform="matrix( 0.3465118408203125, -0.0610809326171875, 0.0610809326171875, 0.3465118408203125, 9.3,15.8) ">
<use xlink:href="#Layer0_5_MEMBER_0_MEMBER_0_MEMBER_0_FILL"/>
</g>

<g transform="matrix( 0.3465118408203125, -0.0610809326171875, 0.0610809326171875, 0.3465118408203125, 9.3,15.8) ">
<use xlink:href="#Layer0_5_MEMBER_0_MEMBER_0_MEMBER_1_FILL"/>
</g>

<g transform="matrix( 0.346588134765625, -0.06109619140625, 0.06109619140625, 0.346588134765625, 9.4,16.1) ">
<use xlink:href="#Layer0_5_MEMBER_0_MEMBER_1_FILL"/>
</g>

<g transform="matrix( 0.61627197265625, -0.1086273193359375, 0.1086273193359375, 0.61627197265625, 9.3,15.9) ">
<use xlink:href="#Layer0_5_MEMBER_0_MEMBER_2_FILL"/>
</g>

<g transform="matrix( 1, 0, 0, 1, 0,0) ">
<use xlink:href="#Layer0_6_MEMBER_0_FILL"/>
</g>

<g transform="matrix( 0.562469482421875, 0, 0, 0.562469482421875, 0,0) ">
<use xlink:href="#Layer0_6_MEMBER_1_FILL"/>
</g>

<g transform="matrix( 0.562469482421875, 0, 0, 0.562469482421875, 0,0) ">
<use xlink:href="#Layer0_6_MEMBER_2_FILL"/>
</g>

<g transform="matrix( 0.562469482421875, 0, 0, 0.562469482421875, 0,0) ">
<use xlink:href="#Layer0_6_MEMBER_3_FILL"/>
</g>
</g>
</svg>
